build/redact/SpellCheckOutline.svg

<svg xmlns="http://www.w3.org/2000/svg" fill="none" viewBox="0 0 24 24" focusable="false"><path d="M0 0H24V24H0z"/><path fill="#74767B" fill-rule="evenodd" d="M12.0712 3.96436C12.3181 3.96466 12.5435 4.10478 12.653 4.32604L18.0138 15.1579C18.173 15.4796 18.0413 15.8695 17.7196 16.0288C17.3978 16.188 17.0079 16.0563 16.8487 15.7345L16.3997 14.8272L7.7111 14.8272L5.22687 19.8162C5.06686 20.1375 4.67663 20.2683 4.35528 20.1083C4.03393 19.9483 3.90315 19.5581 4.06316 19.2367L11.4886 4.32462C11.5986 4.10363 11.8243 3.96406 12.0712 3.96436ZM12.0686 6.07617L15.7563 13.5272L8.35843 13.5272L12.0686 6.07617ZM20.8146 17.0465C21.0676 16.7918 21.0662 16.3802 20.8115 16.1272C20.5568 15.8743 20.1452 15.8756 19.8923 16.1303L17.4335 18.6057L16.1066 17.2787C15.8527 17.0249 15.4412 17.0249 15.1873 17.2787C14.9335 17.5325 14.9335 17.9441 15.1873 18.1979L16.9755 19.9861C17.0976 20.1082 17.2634 20.1767 17.4362 20.1764C17.609 20.1762 17.7745 20.1071 17.8963 19.9845L20.8146 17.0465Z"/></svg>

<svg xmlns="http://www.w3.org/2000/svg" fill="none" viewBox="0 0 24 24" focusable="false"><path fill="#74767B" fill-rule="evenodd" d="M12.07 3.96c.24 0 .47.14.58.36l5.36 10.83c.16.32.03.71-.3.87-.32.16-.71.03-.87-.29l-.45-.91H7.71l-2.49 4.99a.649.649 0 0 1-1.16-.58l7.42-14.91a.66.66 0 0 1 .59-.36m-.01 2.11 3.69 7.45h-7.4zm8.75 10.97c.25-.25.25-.66 0-.92a.65.65 0 0 0-.92.01l-2.46 2.47-1.33-1.33a.66.66 0 0 0-.92 0c-.25.26-.25.67 0 .92l1.79 1.79c.12.12.29.19.46.19s.34-.07.46-.19z"/></svg>
